src/Static/Icons/joystick.svg

<?xml version="1.0" encoding="UTF-8"?>
<svg width="46px" height="58px" viewBox="0 0 46 58" version="1.1" xmlns="http://www.w3.org/2000/svg" xmlns:xlink="http://www.w3.org/1999/xlink">
    <title>joystick (1)</title>
    <defs>
        <path d="M30,33.75 C30,31.68225 28.142796,30 25.86,30 L11.14,30 C8.857204,30 7,31.68225 7,33.75 L7,35 L30,35 L30,33.75 Z" id="path-1"></path>
        <filter x="-34.8%" y="-120.0%" width="169.6%" height="420.0%" filterUnits="objectBoundingBox" id="filter-2">
            <feMorphology radius="1" operator="dilate" in="SourceAlpha" result="shadowSpreadOuter1"></feMorphology>
            <feOffset dx="0" dy="2" in="shadowSpreadOuter1" result="shadowOffsetOuter1"></feOffset>
            <feGaussianBlur stdDeviation="2" in="shadowOffsetOuter1" result="shadowBlurOuter1"></feGaussianBlur>
            <feComposite in="shadowBlurOuter1" in2="SourceAlpha" operator="out" result="shadowBlurOuter1"></feComposite>
            <feColorMatrix values="0 0 0 0 0   0 0 0 0 0   0 0 0 0 0  0 0 0 0.5 0" type="matrix" in="shadowBlurOuter1"></feColorMatrix>
        </filter>
        <path d="M30.9230769,39 L5.07692308,39 C2.27750769,39 0,41.22057 0,43.95 L0,46.65 C0,47.39556 0.619938462,48 1.38461538,48 L34.6153846,48 C35.3800615,48 36,47.39556 36,46.65 L36,43.95 C36,41.22057 33.7224923,39 30.9230769,39 Z M6,44.85 C5.23532308,44.85 4.61538462,44.24556 4.61538462,43.5 C4.61538462,42.75444 5.23532308,42.15 6,42.15 C6.76467692,42.15 7.38461538,42.75444 7.38461538,43.5 C7.38461538,44.24556 6.76467692,44.85 6,44.85 Z M23.5384615,44.85 L12.4615385,44.85 C11.6968615,44.85 11.0769231,44.24556 11.0769231,43.5 C11.0769231,42.75444 11.6968615,42.15 12.4615385,42.15 L23.5384615,42.15 C24.3031385,42.15 24.9230769,42.75444 24.9230769,43.5 C24.9230769,44.24556 24.3031385,44.85 23.5384615,44.85 Z M30,44.85 C29.2353231,44.85 28.6153846,44.24556 28.6153846,43.5 C28.6153846,42.75444 29.2353231,42.15 30,42.15 C30.7646769,42.15 31.3846154,42.75444 31.3846154,43.5 C31.3846154,44.24556 30.7646769,44.85 30,44.85 Z" id="path-3"></path>
        <filter x="-22.2%" y="-66.7%" width="144.4%" height="277.8%" filterUnits="objectBoundingBox" id="filter-4">
            <feMorphology radius="1" operator="dilate" in="SourceAlpha" result="shadowSpreadOuter1"></feMorphology>
            <feOffset dx="0" dy="2" in="shadowSpreadOuter1" result="shadowOffsetOuter1"></feOffset>
            <feGaussianBlur stdDeviation="2" in="shadowOffsetOuter1" result="shadowBlurOuter1"></feGaussianBlur>
            <feComposite in="shadowBlurOuter1" in2="SourceAlpha" operator="out" result="shadowBlurOuter1"></feComposite>
            <feColorMatrix values="0 0 0 0 0   0 0 0 0 0   0 0 0 0 0  0 0 0 0.5 0" type="matrix" in="shadowBlurOuter1"></feColorMatrix>
        </filter>
        <path d="M22.0789474,16.7528527 C25.0585105,15.3281404 27,12.2420959 27,8.78424658 C27,3.94061301 23.1869,0 18.5,0 C13.8131,0 10,3.94061301 10,8.78424658 C10,12.2420959 11.9414895,15.3281404 14.9210526,16.7528527 L14.9210526,27 L22.0789474,27 L22.0789474,16.7528527 Z" id="path-5"></path>
        <filter x="-47.1%" y="-22.2%" width="194.1%" height="159.3%" filterUnits="objectBoundingBox" id="filter-6">
            <feMorphology radius="1" operator="dilate" in="SourceAlpha" result="shadowSpreadOuter1"></feMorphology>
            <feOffset dx="0" dy="2" in="shadowSpreadOuter1" result="shadowOffsetOuter1"></feOffset>
            <feGaussianBlur stdDeviation="2" in="shadowOffsetOuter1" result="shadowBlurOuter1"></feGaussianBlur>
            <feComposite in="shadowBlurOuter1" in2="SourceAlpha" operator="out" result="shadowBlurOuter1"></feComposite>
            <feColorMatrix values="0 0 0 0 0   0 0 0 0 0   0 0 0 0 0  0 0 0 0.5 0" type="matrix" in="shadowBlurOuter1"></feColorMatrix>
        </filter>
    </defs>
    <g id="Page-1" stroke="none" stroke-width="1" fill="none" fill-rule="evenodd">
        <g id="Home" transform="translate(-174.000000, -581.000000)" fill-rule="nonzero">
            <g id="joystick-(1)" transform="translate(179.000000, 584.000000)">
                <g id="Path">
                    <use fill="black" fill-opacity="1" filter="url(#filter-2)" xlink:href="#path-1"></use>
                    <use stroke="#1A1A1D" stroke-width="2" fill="#6F2232" xlink:href="#path-1"></use>
                </g>
                <g id="Shape">
                    <use fill="black" fill-opacity="1" filter="url(#filter-4)" xlink:href="#path-3"></use>
                    <use stroke="#1A1A1D" stroke-width="2" fill="#6F2232" xlink:href="#path-3"></use>
                </g>
                <g id="Path">
                    <use fill="black" fill-opacity="1" filter="url(#filter-6)" xlink:href="#path-5"></use>
                    <use stroke="#1A1A1D" stroke-width="2" fill="#6F2232" xlink:href="#path-5"></use>
                </g>
            </g>
        </g>
    </g>
</svg>

<svg xmlns="http://www.w3.org/2000/svg" width="46" height="58" xmlns:xlink="http://www.w3.org/1999/xlink"><title>joystick (1)</title><defs><path id="b" d="M30 33.75c0-2.07-1.86-3.75-4.14-3.75H11.14C8.86 30 7 31.68 7 33.75V35h23v-1.25z"/><filter id="a" width="169.6%" height="420%" x="-34.8%" y="-120%" filterUnits="objectBoundingBox"><feMorphology radius="1" operator="dilate" in="SourceAlpha" result="shadowSpreadOuter1"/><feOffset dy="2" in="shadowSpreadOuter1" result="shadowOffsetOuter1"/><feGaussianBlur stdDeviation="2" in="shadowOffsetOuter1" result="shadowBlurOuter1"/><feComposite in="shadowBlurOuter1" in2="SourceAlpha" operator="out" result="shadowBlurOuter1"/><feColorMatrix values="0 0 0 0 0 0 0 0 0 0 0 0 0 0 0 0 0 0 0.5 0" in="shadowBlurOuter1"/></filter><path id="d" d="M30.92 39H5.08C2.28 39 0 41.22 0 43.95v2.7C0 47.4.62 48 1.38 48h33.24c.76 0 1.38-.6 1.38-1.35v-2.7c0-2.73-2.28-4.95-5.08-4.95zM6 44.85c-.76 0-1.38-.6-1.38-1.35 0-.75.62-1.35 1.38-1.35.76 0 1.38.6 1.38 1.35 0 .75-.62 1.35-1.38 1.35zm17.54 0H12.46c-.76 0-1.38-.6-1.38-1.35 0-.75.62-1.35 1.38-1.35h11.08c.76 0 1.38.6 1.38 1.35 0 .75-.62 1.35-1.38 1.35zm6.46 0c-.76 0-1.38-.6-1.38-1.35 0-.75.62-1.35 1.38-1.35.76 0 1.38.6 1.38 1.35 0 .75-.62 1.35-1.38 1.35z"/><filter id="c" width="144.4%" height="277.8%" x="-22.2%" y="-66.7%" filterUnits="objectBoundingBox"><feMorphology radius="1" operator="dilate" in="SourceAlpha" result="shadowSpreadOuter1"/><feOffset dy="2" in="shadowSpreadOuter1" result="shadowOffsetOuter1"/><feGaussianBlur stdDeviation="2" in="shadowOffsetOuter1" result="shadowBlurOuter1"/><feComposite in="shadowBlurOuter1" in2="SourceAlpha" operator="out" result="shadowBlurOuter1"/><feColorMatrix values="0 0 0 0 0 0 0 0 0 0 0 0 0 0 0 0 0 0 0.5 0" in="shadowBlurOuter1"/></filter><path id="f" d="M22.08 16.75c2.98-1.42 4.92-4.5 4.92-7.97C27 3.94 23.2 0 18.5 0S10 3.94 10 8.78c0 3.46 1.94 6.55 4.92 7.97V27h7.16V16.75z"/><filter id="e" width="194.1%" height="159.3%" x="-47.1%" y="-22.2%" filterUnits="objectBoundingBox"><feMorphology radius="1" operator="dilate" in="SourceAlpha" result="shadowSpreadOuter1"/><feOffset dy="2" in="shadowSpreadOuter1" result="shadowOffsetOuter1"/><feGaussianBlur stdDeviation="2" in="shadowOffsetOuter1" result="shadowBlurOuter1"/><feComposite in="shadowBlurOuter1" in2="SourceAlpha" operator="out" result="shadowBlurOuter1"/><feColorMatrix values="0 0 0 0 0 0 0 0 0 0 0 0 0 0 0 0 0 0 0.5 0" in="shadowBlurOuter1"/></filter></defs><g fill="none"><g fill-rule="nonzero"><g><g id="Path" transform="translate(-174 -581) translate(179 584)"><use fill="#000" filter="url(#a)" xlink:href="#b"/><use fill="#6F2232" stroke="#1A1A1D" stroke-width="2" xlink:href="#b"/></g><g transform="translate(-174 -581) translate(179 584)"><use fill="#000" filter="url(#c)" xlink:href="#d"/><use fill="#6F2232" stroke="#1A1A1D" stroke-width="2" xlink:href="#d"/></g><g transform="translate(-174 -581) translate(179 584)"><use fill="#000" filter="url(#e)" xlink:href="#f"/><use fill="#6F2232" stroke="#1A1A1D" stroke-width="2" xlink:href="#f"/></g></g></g></g></svg>
